public/avatar/body/95.svg

<svg xmlns:xlink="http://www.w3.org/1999/xlink" height="82" width="84.85" xmlns="http://www.w3.org/2000/svg"><g transform="translate(37.4 42.25)"><use height="38" transform="translate(-11.95 -17.45)" width="32.05" xlink:href="#a"/><use height="38.95" transform="translate(-12.45 -17.95)" width="33.05" xlink:href="#b"/><use height="20.55" transform="translate(2.85 .85)" width="22.1" xlink:href="#c"/><use height="20.55" transform="matrix(-1 0 0 1 5.4 .85)" width="22.1" xlink:href="#c"/></g><defs><use height="38" width="32.05" xlink:href="#d" id="a"/><use height="38.95" width="33.05" xlink:href="#e" id="b"/><use height="20.55" width="22.1" xlink:href="#f" id="c"/><path d="M27.35 7.4q2.15 4.15 3.55 8.75 1.45 4.7 1.15 9.5-.35 4.95-4.2 8.1-3.8 3.2-8.75 4.05l-2.6.2q-3.6 0-7.05-1.15-4.65-1.6-7.1-5.5Q-.2 27.4.05 23q.2-4.4 2-9.3Q3.85 8.75 7 5.05 10.1 1.3 14.7.1l1.8-.1q1.9.05 3.7.8 4.75 2.05 7.15 6.6" fill="#fff" fill-rule="evenodd" transform="translate(-.05)" id="d"/><path d="M27.35 7.4Q24.95 2.85 20.2.8 17.55-.3 14.7.1 10.1 1.3 7 5.05q-3.15 3.7-4.95 8.65-1.8 4.9-2 9.3-.25 4.4 2.3 8.35 2.45 3.9 7.1 5.5 4.65 1.55 9.65.95 4.95-.85 8.75-4.05 3.85-3.15 4.2-8.1.3-4.8-1.15-9.5-1.4-4.6-3.55-8.75Z" fill="none" stroke="#333" stroke-linecap="round" stroke-linejoin="round" transform="translate(.45 .5)" id="e"/><g id="f"><path d="m3.85 6.55.1.05v11.75h-2.8V8.3q1.55-.1 2.7-1.75" fill="#37cbe5" fill-rule="evenodd" transform="translate(0 .85)"/><path d="m1.8 19.5.8.05 8.45-.85q3.15-.1 3-2.2 3.85-2.15 4.3-5.1v-.15L18.7 10q1.6-3.75 1.85-6.05.7-.8.5-1.75 0-.45-.65-.9t-1.25-.25l-1.9.2" fill="none" stroke="#000" stroke-linecap="round" stroke-linejoin="round" stroke-width="2"/><path d="M4.25 6.7q.35-.25 2.4-.95l13.8-4.35q-.05 3.25-2.1 9.15-.45 2.95-4.3 5.1-.15 1.65-2.35 2.05l-11.65.45 2.2-6L3.2 8.9q.05-1.5 1.05-2.2" fill-rule="evenodd" transform="translate(0 .85)"/><path d="M18.85 6.85q.1 3.4-1.35 5.7l-1.75-.8-6.85-6.7L20.45 1.4q-1.7 2-1.6 5.45" fill="red" fill-rule="evenodd" transform="translate(0 .85)"/><path d="m9.6 5.8 5.2 5.05 1.4 1 1.3.7" fill="none" stroke="#fff" stroke-linecap="round" stroke-linejoin="round" transform="translate(0 .85)"/><path d="M20.4.45q.65.45.65.9.05 2.3-1.95 2.4-5.85.65-7.55 1.2-4.75 1.4-5.95 2L3.2 8.9q-.9-3.45 2.95-5.25Q10 1.8 19.15.2q.6-.2 1.25.25M1.4 15l7.2.25 4.05-.05 2.5-.5-1.1.95q.15 2.1-3 2.2l-8.45.85-2.3-.25L1.4 15" fill="#ededed" fill-rule="evenodd" transform="translate(0 .85)"/><path d="M15.9 14.5q-2.7 1.3-4.65 1.3l-9.75-.55" fill="none" stroke="#c7c7c7" stroke-linecap="round" stroke-linejoin="round" transform="translate(0 .85)"/><path d="M3.3 7.5 5.9 6q-1.55 3.7-2.35 6.1-.8 2.4-1.75 6.65L0 18.3q.9-4.05 1.9-6.95L3.3 7.5" fill="#a6a6a6" fill-rule="evenodd" transform="translate(0 .85)"/><path d="m13.3 12.05-.4 1.15q-.35 1.3-1.4 1.25l-2.3-.2q-1.2-.35-1.15-1.1l.45-1.5 2.6.4h2.2" fill="red" fill-rule="evenodd" transform="translate(0 .85)"/><path d="M4.4 5.1q1.9-2.4 4.9-3.25-3.6 3.75-4.15 4.7l-.6.9-1.75.9L4.4 5.1" fill="#a6a6a6" fill-rule="evenodd" transform="translate(0 .85)"/><path d="M17.35 0Q12.85.8 10 1.85q-1.8.65-3.35 1.9L5.4 4.85" fill="none" stroke="#a6a6a6" stroke-linecap="round" stroke-linejoin="round" transform="translate(0 .85)"/><path d="M20.9 1.6Q20 .4 19.15.75 9.75 1.7 6.8 5L5.15 7.75" fill="none" stroke="#fff" stroke-linecap="round" stroke-linejoin="round" transform="translate(0 .85)"/></g></defs></svg>

<?xml version="1.0" encoding="UTF-8" standalone="no"?>
<svg xmlns:xlink="http://www.w3.org/1999/xlink" height="82.0px" width="84.85px" xmlns="http://www.w3.org/2000/svg">
  <g transform="matrix(1.0, 0.0, 0.0, 1.0, 37.4, 42.25)">
    <use height="38.0" transform="matrix(1.0, 0.0, 0.0, 1.0, -11.95, -17.45)" width="32.05" xlink:href="#sprite0"/>
    <use height="38.95" transform="matrix(1.0, 0.0, 0.0, 1.0, -12.45, -17.95)" width="33.05" xlink:href="#sprite1"/>
    <use height="20.55" transform="matrix(1.0, 0.0, 0.0, 1.0, 2.85, 0.85)" width="22.1" xlink:href="#sprite2"/>
    <use height="20.55" transform="matrix(-1.0, 0.0, 0.0, 1.0, 5.4, 0.85)" width="22.1" xlink:href="#sprite2"/>
  </g>
  <defs>
    <g id="sprite0" transform="matrix(1.0, 0.0, 0.0, 1.0, -0.05, 0.0)">
      <use height="38.0" transform="matrix(1.0, 0.0, 0.0, 1.0, 0.05, 0.0)" width="32.05" xlink:href="#shape0"/>
    </g>
    <g id="shape0" transform="matrix(1.0, 0.0, 0.0, 1.0, -0.05, 0.0)">
      <path d="M27.35 7.4 Q29.5 11.55 30.9 16.15 32.35 20.85 32.05 25.65 31.7 30.6 27.85 33.75 24.05 36.95 19.1 37.8 L16.5 38.0 Q12.9 38.0 9.45 36.85 4.8 35.25 2.35 31.35 -0.2 27.4 0.05 23.0 0.25 18.6 2.05 13.7 3.85 8.75 7.0 5.05 10.1 1.3 14.7 0.1 L16.5 0.0 Q18.4 0.05 20.2 0.8 24.95 2.85 27.35 7.4" fill="#ffffff" fill-rule="evenodd" stroke="none"/>
    </g>
    <g id="sprite1" transform="matrix(1.0, 0.0, 0.0, 1.0, 0.45, 0.5)">
      <use height="38.95" transform="matrix(1.0, 0.0, 0.0, 1.0, -0.45, -0.5)" width="33.05" xlink:href="#shape1"/>
    </g>
    <g id="shape1" transform="matrix(1.0, 0.0, 0.0, 1.0, 0.45, 0.5)">
      <path d="M27.35 7.4 Q24.95 2.85 20.2 0.8 17.55 -0.3 14.7 0.1 10.1 1.3 7.0 5.05 3.85 8.75 2.05 13.7 0.25 18.6 0.05 23.0 -0.2 27.4 2.35 31.35 4.8 35.25 9.45 36.85 14.1 38.4 19.1 37.8 24.05 36.95 27.85 33.75 31.7 30.6 32.05 25.65 32.35 20.85 30.9 16.15 29.5 11.55 27.35 7.4 Z" fill="none" stroke="#333333" stroke-linecap="round" stroke-linejoin="round" stroke-width="1.0"/>
    </g>
    <g id="sprite2" transform="matrix(1.0, 0.0, 0.0, 1.0, 0.0, 0.85)">
      <use height="20.55" transform="matrix(1.0, 0.0, 0.0, 1.0, 0.0, -0.85)" width="22.1" xlink:href="#shape2"/>
    </g>
    <g id="shape2" transform="matrix(1.0, 0.0, 0.0, 1.0, 0.0, 0.85)">
      <path d="M3.85 6.55 L3.95 6.6 3.95 18.35 1.15 18.35 1.15 8.3 Q2.7 8.2 3.85 6.55" fill="#37cbe5" fill-rule="evenodd" stroke="none"/>
      <path d="M1.8 18.65 L2.6 18.7 11.05 17.85 Q14.2 17.75 14.05 15.65 17.9 13.5 18.35 10.55 L18.35 10.4 18.7 9.15 Q20.3 5.4 20.55 3.1 21.25 2.3 21.05 1.35 21.05 0.9 20.4 0.45 19.75 0.0 19.15 0.2 L17.25 0.4" fill="none" stroke="#000000" stroke-linecap="round" stroke-linejoin="round" stroke-width="2.0"/>
      <path d="M4.25 6.7 Q4.6 6.45 6.65 5.75 L20.45 1.4 Q20.4 4.65 18.35 10.55 17.9 13.5 14.05 15.65 13.9 17.3 11.7 17.7 L0.05 18.15 2.25 12.15 3.2 8.9 Q3.25 7.4 4.25 6.7" fill="#000000" fill-rule="evenodd" stroke="none"/>
      <path d="M18.85 6.85 Q18.95 10.25 17.5 12.55 L15.75 11.75 8.9 5.05 20.45 1.4 Q18.75 3.4 18.85 6.85" fill="#ff0000" fill-rule="evenodd" stroke="none"/>
      <path d="M9.6 5.8 L14.8 10.85 16.2 11.85 17.5 12.55" fill="none" stroke="#ffffff" stroke-linecap="round" stroke-linejoin="round" stroke-width="1.0"/>
      <path d="M20.4 0.45 Q21.05 0.9 21.05 1.35 21.1 3.65 19.1 3.75 13.25 4.4 11.55 4.95 6.8 6.35 5.6 6.95 L3.2 8.9 Q2.3 5.45 6.15 3.65 10.0 1.8 19.15 0.2 19.75 0.0 20.4 0.45" fill="#ededed" fill-rule="evenodd" stroke="none"/>
      <path d="M1.4 15.0 L8.6 15.25 12.65 15.2 15.15 14.7 14.05 15.65 Q14.2 17.75 11.05 17.85 L2.6 18.7 0.3 18.45 1.4 15.0" fill="#ededed" fill-rule="evenodd" stroke="none"/>
      <path d="M15.9 14.5 Q13.2 15.8 11.25 15.8 L1.5 15.25" fill="none" stroke="#c7c7c7" stroke-linecap="round" stroke-linejoin="round" stroke-width="1.0"/>
      <path d="M3.3 7.5 L5.9 6.0 Q4.35 9.7 3.55 12.1 2.75 14.5 1.8 18.75 L0.0 18.3 Q0.9 14.25 1.9 11.35 L3.3 7.5" fill="#a6a6a6" fill-rule="evenodd" stroke="none"/>
      <path d="M13.3 12.05 L12.9 13.2 Q12.55 14.5 11.5 14.45 L9.2 14.25 Q8.0 13.9 8.05 13.15 L8.5 11.65 11.1 12.05 13.3 12.05" fill="#ff0000" fill-rule="evenodd" stroke="none"/>
      <path d="M4.4 5.1 Q6.3 2.7 9.3 1.85 5.7 5.6 5.15 6.55 L4.55 7.45 2.8 8.35 4.4 5.1" fill="#a6a6a6" fill-rule="evenodd" stroke="none"/>
      <path d="M17.35 0.0 Q12.85 0.8 10.0 1.85 8.2 2.5 6.65 3.75 L5.4 4.85" fill="none" stroke="#a6a6a6" stroke-linecap="round" stroke-linejoin="round" stroke-width="1.0"/>
      <path d="M20.9 1.6 Q20.0 0.4 19.15 0.75 9.75 1.7 6.8 5.0 L5.15 7.75" fill="none" stroke="#ffffff" stroke-linecap="round" stroke-linejoin="round" stroke-width="1.0"/>
    </g>
  </defs>
</svg>
